X:18576
T:Weevily Wheat
S:Peggy Seeger
M:2/4
I:speed 450
K:C
|c2A2 A2G2|c2A2 A2E2|G3G G2A2|G4 E4|
A2B2 c2d2|e2g2 e2d2|c2A2 B2G2|A4 A4||


